X: 12156
T: Excelsior
R: hornpipe
M: 4/4
K: Amajor
A,CEC A,AcA|EGBG Acec|dfdB cecA|(3BcB (3AGF (3EFE (3DCB,|
A,CEC A,AcA|EGBG Acec|dfdf GBEB|A2c2A2z2:|
|:ceae cefe|ceae dcBA|agae fgae|(3gba (3gfe (3efe (3dcB|
ceae cefe|ceae dcBA|agae fdBG|A2c2A2z2:|

